svgs/sharp-solid/bed-bunk.svg

<svg xmlns="http://www.w3.org/2000/svg" viewBox="0 0 576 512"><!--! Font Awesome Pro 6.6.0 by @fontawesome - https://fontawesome.com License - https://fontawesome.com/license (Commercial License) Copyright 2024 Fonticons, Inc. --><path d="M64 32L64 0 0 0 0 32 0 480l0 32 64 0 0-32 0-32 192 0 256 0 0 32 0 32 64 0 0-32 0-32 0-32 0-128 0-32 0-64 0-32 0-32 0-16C576 50.1 525.9 0 464 0L256 0 224 0l0 32 0 96L64 128l0-96zM512 256l-256 0-32 0 0 32 0 96L64 384l0-192 192 0 256 0 0 64zM192 304a48 48 0 1 0 -96 0 48 48 0 1 0 96 0zM144 96a48 48 0 1 0 0-96 48 48 0 1 0 0 96z"/></svg>

<svg xmlns="http://www.w3.org/2000/svg" viewBox="0 0 576 512"><!--! Font Awesome Pro 6.4.0 by @fontawesome - https://fontawesome.com License - https://fontawesome.com/license (Commercial License) Copyright 2023 Fonticons, Inc. --><path d="M64 32V0H0V32 480v32H64V480 448H256 512v32 32h64V480 448 416 288 256 192 160 128 112C576 50.1 525.9 0 464 0H256 224V32v96H64V32zM512 256H256 224v32 96H64V192H256 512v64zM192 304a48 48 0 1 0 -96 0 48 48 0 1 0 96 0zM144 96a48 48 0 1 0 0-96 48 48 0 1 0 0 96z"/></svg>
